X: 21
T: The Deceivers
%R: jig
B: "Twenty Four Country Dances for the Year 1781", Thomas Skillern, ed. p.11 #1
F: http://www.vwml.org/browse/browse-collections-dance-tune-books/browse-skillerns1781#
Z: 2014 John Chambers <jc:trillian.mit.edu>
M: 6/8
L: 1/8
K: F
c |\
AGA F2F | fef c3 | def cAF | GAF EDC |\
AGA F2F | fed g2f | edc Gc=B | c3- c2 :|
|: c |\
cBc A2A | BAB G3 | ABc F2F | GAF EDC |\
AGA F2F | B2c d2e | fga cdB | ABG F2 :|
%%begintext align
%%   First & 2d Cu. pas Rigadoon & half Right and
%% Left .| the same & half Right and Lelf [sic] to your
%% own places :| lead down the middle :|. up again
%% Cast off and Right and Left at top :|:
%%endtext

%%sep 1 1 500
%%sep 1 1 500
